X: 2
T: Macroom Fling, The
M: 4/4
L: 1/8
R: highland fling
K: Gmaj
|: GE |\ 
D3 E GABG | AGBG AGEG | 
D2 DE GABd |[1 gedB A2 :|[2 gedB G2 ||
|: Bd |\ 
g2 ge d2 ge | d2 BG AGEG | 
gfge dega | b2 gb a2 ga |
b2 gb agef | gedB AGEG | 
D3 E GABd | gedB G2 |]
